app/img/icomoon/filter.svg

<svg width="19" height="16" viewBox="0 0 19 16" fill="none" xmlns="http://www.w3.org/2000/svg">
<path d="M8.29623 0C7.32695 0 6.50116 0.613636 6.18783 1.45455H0.0500488V2.90909H6.18783C6.50116 3.75 7.32695 4.36364 8.29623 4.36364C9.26551 4.36364 10.0913 3.75 10.4046 2.90909H18.0417V1.45455H10.4046C10.0913 0.613636 9.26551 0 8.29623 0ZM8.29623 1.45455C8.71791 1.45455 9.04588 1.77273 9.04588 2.18182C9.04588 2.59091 8.71791 2.90909 8.29623 2.90909C7.87455 2.90909 7.54658 2.59091 7.54658 2.18182C7.54658 1.77273 7.87455 1.45455 8.29623 1.45455ZM13.5438 5.81818C12.5745 5.81818 11.7487 6.43182 11.4354 7.27273H0.0500488V8.72727H11.4354C11.7487 9.56818 12.5745 10.1818 13.5438 10.1818C14.5131 10.1818 15.3389 9.56818 15.6522 8.72727H18.0417V7.27273H15.6522C15.3389 6.43182 14.5131 5.81818 13.5438 5.81818ZM13.5438 7.27273C13.9655 7.27273 14.2935 7.59091 14.2935 8C14.2935 8.40909 13.9655 8.72727 13.5438 8.72727C13.1221 8.72727 12.7941 8.40909 12.7941 8C12.7941 7.59091 13.1221 7.27273 13.5438 7.27273ZM5.29762 11.6364C4.32834 11.6364 3.50255 12.25 3.18922 13.0909H0.0500488V14.5455H3.18922C3.50255 15.3864 4.32834 16 5.29762 16C6.2669 16 7.09269 15.3864 7.40602 14.5455H18.0417V13.0909H7.40602C7.09269 12.25 6.2669 11.6364 5.29762 11.6364ZM5.29762 13.0909C5.7193 13.0909 6.04727 13.4091 6.04727 13.8182C6.04727 14.2273 5.7193 14.5455 5.29762 14.5455C4.87594 14.5455 4.54797 14.2273 4.54797 13.8182C4.54797 13.4091 4.87594 13.0909 5.29762 13.0909Z" fill="white"/>
</svg>

<svg width="19" height="16" fill="none" xmlns="http://www.w3.org/2000/svg"><path d="M8.296 0c-.969 0-1.795.614-2.108 1.455H.05v1.454h6.138a2.253 2.253 0 002.108 1.455c.97 0 1.795-.614 2.109-1.455h7.637V1.455h-7.637A2.253 2.253 0 008.296 0zm0 1.455c.422 0 .75.318.75.727s-.328.727-.75.727c-.421 0-.75-.318-.75-.727 0-.41.329-.727.75-.727zm5.248 4.363c-.97 0-1.795.614-2.109 1.455H.05v1.454h11.385a2.253 2.253 0 002.109 1.455c.97 0 1.795-.614 2.108-1.455h2.39V7.273h-2.39a2.253 2.253 0 00-2.108-1.455zm0 1.455c.421 0 .75.318.75.727 0 .41-.329.727-.75.727-.422 0-.75-.318-.75-.727 0-.41.328-.727.75-.727zm-8.246 4.363c-.97 0-1.795.614-2.109 1.455H.05v1.455h3.14A2.253 2.253 0 005.297 16c.969 0 1.795-.614 2.108-1.454h10.636V13.09H7.406a2.253 2.253 0 00-2.108-1.455zm0 1.455c.421 0 .75.318.75.727a.73.73 0 01-.75.728c-.422 0-.75-.319-.75-.728s.328-.727.75-.727z" fill="#fff"/></svg>
